X: 9348
T: Dancing Dustman, The
R: jig
M: 6/8
K: Gmajor
|:bgd B2 d|edB G2 B|A^GA c2 A|E3- E3|
FAc f2 e|d2 c B2 A|B^AB e2- e/B/|d3- d3|
bgd B2 d|edB G2 B|A^GA c2 A|E3- E3|
FAc f2 e|d2 c A2 F|E^EF B2 A|G3 g3:|
K: Cmaj
g2 c cde|d2 c g3|a2 d def|e2 d a3|
b2 f fga|g2 g g3|a2 c cde|a2 a a3|
g2 c cde|d2 c g3|a2 d def|e2 d a3|
b2 f fga|g2 g g3|gag fed|c3 c'3||
K: Gmaj
bgd B2 d|edB G2 B|A^GA c2 =A|E3- E3|
FAc f2 e|d2 c B2 A|B^AB e2 B|d3- d3|
bgd B2 d|edB G2 B|A^GA c2 A|E3- E3|
FAc f2 e|d2 c A2 F|E^EF B2 A|G3 g3||
K: Cmaj
G2 A G2 F|E2 G c2 e|e2 d f2 d|A3- A3|
B2 ^A B2 c|d2 ^c d2 ^d|e^de a2 e|g3- g3|
G2 A G2 F|E2 G c2 e|e2 d f2 d|A3- A3|
B2 ^A B2 c|d2 ^c d2 e|cBc e2 g|c'3 c'3||

